Simply-Cyan-Circles/scalable/notifications/notification-display-brightness-high.svg

<svg xmlns="http://www.w3.org/2000/svg" width="48" height="48" viewBox="0 0 12.7 12.7"><path d="M9.66 2.62a.16.16 0 0 0-.1.05l-.72.71a.17.17 0 0 0 0 .24l.24.24a.17.17 0 0 0 .24 0l.71-.72a.17.17 0 0 0 0-.23l-.24-.24a.17.17 0 0 0-.11-.05.16.16 0 0 0-.02 0zM6.35 4A2.35 2.35 0 0 0 4 6.35 2.35 2.35 0 0 0 6.35 8.7 2.35 2.35 0 0 0 8.7 6.35 2.35 2.35 0 0 0 6.35 4zM10.21 6c-.09 0-.16.08-.16.17v.34c0 .09.07.17.16.17h1.01c.1 0 .17-.08.17-.17v-.34c0-.09-.08-.17-.17-.17h-1zM9.18 8.8a.17.17 0 0 0-.1.04l-.24.24a.17.17 0 0 0 0 .24l.72.71a.17.17 0 0 0 .23 0l.24-.24a.17.17 0 0 0 0-.23l-.71-.72a.17.17 0 0 0-.12-.04.17.17 0 0 0-.02 0z" fill="#fd5" fill-opacity=".3"/><path d="M6.52 1.31c.09 0 .17.08.17.17v1c0 .1-.08.17-.17.17h-.34a.17.17 0 0 1-.17-.16V1.48c0-.1.08-.17.17-.17zM3.04 2.62a.16.16 0 0 1 .1.05l.72.71a.17.17 0 0 1 0 .24l-.24.24a.17.17 0 0 1-.24 0l-.71-.72a.17.17 0 0 1 0-.23l.24-.24a.17.17 0 0 1 .11-.05.16.16 0 0 1 .02 0zM6.35 4a2.35 2.35 0 0 1 1.3.4v3.9a2.35 2.35 0 0 1-1.3.4A2.35 2.35 0 0 1 4 6.35 2.35 2.35 0 0 1 6.35 4zM2.49 6c.09 0 .16.08.16.17v.34c0 .09-.07.17-.16.17H1.48a.17.17 0 0 1-.17-.17v-.34c0-.1.08-.17.17-.17zM3.52 8.8a.17.17 0 0 1 .1.04l.24.24a.17.17 0 0 1 0 .24l-.72.71a.17.17 0 0 1-.23 0l-.24-.24a.17.17 0 0 1 0-.23l.71-.72a.17.17 0 0 1 .12-.04.17.17 0 0 1 .02 0zm3 1.25c.09 0 .17.07.17.16v1.01c0 .1-.08.17-.17.17h-.34a.17.17 0 0 1-.17-.17v-1c0-.1.08-.17.17-.17z" fill="#fd5"/></svg>

<?xml version="1.0" encoding="UTF-8" standalone="no"?>
<svg
   xmlns:dc="http://purl.org/dc/elements/1.1/"
   xmlns:cc="http://creativecommons.org/ns#"
   xmlns:rdf="http://www.w3.org/1999/02/22-rdf-syntax-ns#"
   xmlns:svg="http://www.w3.org/2000/svg"
   xmlns="http://www.w3.org/2000/svg"
   xmlns:sodipodi="http://sodipodi.sourceforge.net/DTD/sodipodi-0.dtd"
   xmlns:inkscape="http://www.inkscape.org/namespaces/inkscape"
   width="48"
   height="48"
   viewBox="0 0 12.7 12.7"
   version="1.1"
   id="svg6"
   sodipodi:docname="notification-display-brightness-high.svg"
   inkscape:version="0.92.4 (5da689c313, 2019-01-14)">
  <metadata
     id="metadata12">
    <rdf:RDF>
      <cc:Work
         rdf:about="">
        <dc:format>image/svg+xml</dc:format>
        <dc:type
           rdf:resource="http://purl.org/dc/dcmitype/StillImage" />
        <dc:title></dc:title>
      </cc:Work>
    </rdf:RDF>
  </metadata>
  <defs
     id="defs10" />
  <sodipodi:namedview
     pagecolor="#ffffff"
     bordercolor="#666666"
     borderopacity="1"
     objecttolerance="10"
     gridtolerance="10"
     guidetolerance="10"
     inkscape:pageopacity="0"
     inkscape:pageshadow="2"
     inkscape:window-width="1087"
     inkscape:window-height="480"
     id="namedview8"
     showgrid="false"
     inkscape:zoom="4.9166667"
     inkscape:cx="2.1355932"
     inkscape:cy="24"
     inkscape:window-x="0"
     inkscape:window-y="25"
     inkscape:window-maximized="0"
     inkscape:current-layer="svg6" />
  <path
     d="M 9.66,2.62 A 0.16,0.16 0 0 0 9.56,2.67 L 8.84,3.38 a 0.17,0.17 0 0 0 0,0.24 l 0.24,0.24 a 0.17,0.17 0 0 0 0.24,0 l 0.71,-0.72 a 0.17,0.17 0 0 0 0,-0.23 L 9.79,2.67 A 0.17,0.17 0 0 0 9.68,2.62 0.16,0.16 0 0 0 9.66,2.62 Z M 6.35,4 A 2.35,2.35 0 0 0 4,6.35 2.35,2.35 0 0 0 6.35,8.7 2.35,2.35 0 0 0 8.7,6.35 2.35,2.35 0 0 0 6.35,4 Z m 3.86,2 c -0.09,0 -0.16,0.08 -0.16,0.17 v 0.34 c 0,0.09 0.07,0.17 0.16,0.17 h 1.01 c 0.1,0 0.17,-0.08 0.17,-0.17 V 6.17 C 11.39,6.08 11.31,6 11.22,6 h -1 z M 9.18,8.8 A 0.17,0.17 0 0 0 9.08,8.84 L 8.84,9.08 a 0.17,0.17 0 0 0 0,0.24 l 0.72,0.71 a 0.17,0.17 0 0 0 0.23,0 l 0.24,-0.24 a 0.17,0.17 0 0 0 0,-0.23 L 9.32,8.84 A 0.17,0.17 0 0 0 9.2,8.8 0.17,0.17 0 0 0 9.18,8.8 Z"
     id="path2"
     inkscape:connector-curvature="0"
     style="fill:#ffdd55;fill-opacity:0.3" />
  <path
     d="m 6.52,1.31 c 0.09,0 0.17,0.08 0.17,0.17 v 1 c 0,0.1 -0.08,0.17 -0.17,0.17 H 6.18 A 0.17,0.17 0 0 1 6.01,2.49 V 1.48 c 0,-0.1 0.08,-0.17 0.17,-0.17 z M 3.04,2.62 a 0.16,0.16 0 0 1 0.1,0.05 l 0.72,0.71 a 0.17,0.17 0 0 1 0,0.24 L 3.62,3.86 a 0.17,0.17 0 0 1 -0.24,0 L 2.67,3.14 a 0.17,0.17 0 0 1 0,-0.23 L 2.91,2.67 a 0.17,0.17 0 0 1 0.11,-0.05 0.16,0.16 0 0 1 0.02,0 z M 6.35,4 a 2.35,2.35 0 0 1 1.3,0.4 V 8.3 A 2.35,2.35 0 0 1 6.35,8.7 2.35,2.35 0 0 1 4,6.35 2.35,2.35 0 0 1 6.35,4 Z M 2.49,6 C 2.58,6 2.65,6.08 2.65,6.17 V 6.51 C 2.65,6.6 2.58,6.68 2.49,6.68 H 1.48 A 0.17,0.17 0 0 1 1.31,6.51 V 6.17 C 1.31,6.07 1.39,6 1.48,6 Z m 1.03,2.8 a 0.17,0.17 0 0 1 0.1,0.04 l 0.24,0.24 a 0.17,0.17 0 0 1 0,0.24 l -0.72,0.71 a 0.17,0.17 0 0 1 -0.23,0 L 2.67,9.79 a 0.17,0.17 0 0 1 0,-0.23 L 3.38,8.84 A 0.17,0.17 0 0 1 3.5,8.8 a 0.17,0.17 0 0 1 0.02,0 z m 3,1.25 c 0.09,0 0.17,0.07 0.17,0.16 v 1.01 c 0,0.1 -0.08,0.17 -0.17,0.17 H 6.18 A 0.17,0.17 0 0 1 6.01,11.22 v -1 c 0,-0.1 0.08,-0.17 0.17,-0.17 z"
     id="path4"
     inkscape:connector-curvature="0"
     style="fill:#ffdd55" />
</svg>
